X: 3
T: Johnny Cope
R: polka
M: 2/4
L: 1/8
K: Amin
"Am" AA AB/d/ | eA AB/A/ | "G" GG G/A/B/c/ | d/e/d/c/ BA/G/ |"C" cB/c/ "G" dc/d/ | "Em" eg "G" BA/G/ | Eg "E7" e/d/c/B/ | "Am" A2 A :|"C" cc c/G/E/G/ | c/d/e/f/ gc | "G" BG dG | B/c/d/e/ dc/B/ |"C" cB/c/ "G" dc/d/ | "Em" eg "G" BA/G/ | "E7" Eg e/d/c/B/ | "Am" A2 A :|


Tune 2327	Setting 2327

